storage/app/icons/phosphoricons/fill/television-fill.svg

<svg xmlns="http://www.w3.org/2000/svg" fill="currentColor" viewBox="0 0 256 256"><path d="M216 64h-68.69l34.35-34.34a8 8 0 1 0-11.32-11.32L128 60.69 85.66 18.34a8 8 0 0 0-11.32 11.32L108.69 64H40a16 16 0 0 0-16 16v120a16 16 0 0 0 16 16h176a16 16 0 0 0 16-16V80a16 16 0 0 0-16-16m0 136h-56V80h56zm-16-84a12 12 0 1 1-12-12 12 12 0 0 1 12 12m0 48a12 12 0 1 1-12-12 12 12 0 0 1 12 12"/></svg>

<svg xmlns="http://www.w3.org/2000/svg" viewBox="0 0 256 256" fill="currentColor"><path d="M216,64H147.31l34.35-34.34a8,8,0,1,0-11.32-11.32L128,60.69,85.66,18.34A8,8,0,0,0,74.34,29.66L108.69,64H40A16,16,0,0,0,24,80V200a16,16,0,0,0,16,16H216a16,16,0,0,0,16-16V80A16,16,0,0,0,216,64Zm0,136H160V80h56V200Zm-16-84a12,12,0,1,1-12-12A12,12,0,0,1,200,116Zm0,48a12,12,0,1,1-12-12A12,12,0,0,1,200,164Z"/></svg>
